X:1
T:Buffoon, The
C:Adderbury
M:2/2
L:1/8
A:Adderbury
P:A(AB)5A
K:F
P:A
F3G  AGFG|A2c2 c4  |F3G  AGFG|A2G2 G4|
F3G  AGFG|A2c2 c4  |c2BA G2cB|A2F2 F4||
P:B
d3e  d2c2|d2F2 F4  |d3e  d2c2|d2F2 F4|
d3e  d2c2|B3c  B2A2|c2BA G2c2|A2F2 F4||
</abc>
